X:10
T:Reel de traversier
C:Gilles Vigneault
Z:robin.beech@mcgill.ca
R:reel
M:4/4
L:1/8
K:D
ABc |: d2d2 dAFA | B2=c2 BGGF | EAAG FABc | defd ecde |
f2f2 fagf | e2B2 BdcB | AcBA GBAG |1 F2D2 DABc :|2 F2D2 D4 |:
DEFG ADFA | DFAD FADF | ADFA EF^GA | BE^GB EGBE |
^GBcd edcB | ADFA DFAD | FADF EFGA | Bcde fedc | d4 :|

